16x16/apps/koala.svg

<svg xmlns="http://www.w3.org/2000/svg" width="16" height="16" version="1">
 <rect fill="#6f6f6f" width="6" height="7" x="5" y="9" rx=".857" ry=".778"/>
 <circle fill="#6f6f6f" cx="3.5" cy="3.5" r="3.5"/>
 <circle fill="#6f6f6f" cx="12.5" cy="3.5" r="3.5"/>
 <path fill="#a0a3a4" d="m5.3928 12v-2s-0.52903 0.02266-0.78534 0.09149c-1.0611 0.28497-1.8324 1.3707-1.548 2.4343 0.28434 1.0636 1.3675 1.6905 2.4285 1.4055s0.1892-0.867-0.0952-1.931z"/>
 <path fill="#a0a3a4" d="m10.6 12v-2s0.53751 0.02266 0.79359 0.09149c1.0601 0.28497 1.8308 1.3707 1.5467 2.4343-0.28409 1.0636-1.3663 1.6905-2.4264 1.4055-1.0599-0.285-0.198-0.867 0.086-1.931z"/>
 <path fill="#a0a3a4" d="m12 16h-3c0-1.105 0.6716-2 1.5-2 0.828 0 1.5 0.895 1.5 2z"/>
 <path fill="#a0a3a4" d="m7 16h-3c0-1.105 0.6716-2 1.5-2s1.5 0.895 1.5 2z"/>
 <path fill="#a0a3a4" d="m6.3636 10h3.2727c2.7277 0 4.3637-1.0323 4.3637-4.129 0-2.0645-2.182-3.855-6-3.871-3.8182-0.0026-6 1.8065-6 3.871 0 3.0967 1.6364 4.129 4.3636 4.129z"/>
 <g>
  <circle fill="#74b8ff" cx="4.5" cy="5.5" r="1.5"/>
  <circle fill="#4d4d4d" cx="4.5" cy="5.5"/>
 </g>
 <path fill="#4d4d4d" d="m7.1353 8a1 0.66667 0 0 0 -0.1353 0.3333 1 0.66667 0 0 0 1 0.6667 1 0.66667 0 0 0 1 -0.6667 1 0.66667 0 0 0 -0.1353 -0.3333 1 0.66667 0 0 1 -0.8647 0.3333 1 0.66667 0 0 1 -0.8647 -0.3333z"/>
 <g transform="matrix(.58333 0 0 .875 3.3333 1.35)">
  <path fill="#4d4d4d" d="m6.2857 5.3145c0.010452 2.2855 1.0612 2.2855 1.7143 2.2855 0.65306 0 1.7038 0 1.7143-2.2855 0.00194-1.8284-1.1017-3.4288-1.7143-3.4288-0.61276 0-1.7162 1.6004-1.7143 3.4288z"/>
  <path fill="#343434" d="m6.8571 6.8381a0.57143 0.38095 0 0 0 -0.28237 0.050596c0.177 0.34802 0.41603 0.52143 0.66741 0.61161a0.57143 0.38095 0 0 0 0.1865 -0.2813 0.57143 0.38095 0 0 0 -0.5715 -0.3809zm2.2857 0a0.57143 0.38095 0 0 0 -0.57143 0.38095 0.57143 0.38095 0 0 0 0.18638 0.28125c0.2514-0.0902 0.4904-0.2636 0.6674-0.6116a0.57143 0.38095 0 0 0 -0.2823 -0.0506z"/>
 </g>
 <g transform="translate(7)">
  <circle fill="#74b8ff" cx="4.5" cy="5.5" r="1.5"/>
  <circle fill="#4d4d4d" cx="4.5" cy="5.5"/>
 </g>
</svg>

<svg xmlns="http://www.w3.org/2000/svg" width="16" height="16" version="1"><rect fill="#6f6f6f" width="6" height="7" x="5" y="9" rx=".857" ry=".778"/><circle fill="#6f6f6f" cx="3.5" cy="3.5" r="3.5"/><circle fill="#6f6f6f" cx="12.5" cy="3.5" r="3.5"/><path fill="#a0a3a4" d="M5.393 12v-2s-.53.023-.786.091c-1.06.285-1.832 1.371-1.548 2.435.285 1.063 1.368 1.69 2.429 1.405s.19-.867-.095-1.93zM10.6 12v-2s.538.023.794.091c1.06.285 1.83 1.371 1.546 2.435a1.976 1.976 0 0 1-2.426 1.405c-1.06-.285-.198-.867.086-1.93z"/><path fill="#a0a3a4" d="M12 16H9c0-1.105.672-2 1.5-2s1.5.895 1.5 2zM7 16H4c0-1.105.672-2 1.5-2s1.5.895 1.5 2zM6.364 10h3.272C12.364 10 14 8.968 14 5.871 14 3.807 11.818 2.016 8 2c-3.818-.003-6 1.807-6 3.871C2 8.968 3.636 10 6.364 10z"/><circle fill="#74b8ff" cx="4.5" cy="5.5" r="1.5"/><circle fill="#4d4d4d" cx="4.5" cy="5.5"/><path fill="#4d4d4d" d="M7.135 8A1 .667 0 0 0 7 8.333 1 .667 0 0 0 8 9a1 .667 0 0 0 1-.667A1 .667 0 0 0 8.865 8 1 .667 0 0 1 8 8.333 1 .667 0 0 1 7.135 8zM7 6c.006 2 .619 2 1 2 .38 0 .994 0 1-2C9 4.4 8.357 3 8 3c-.358 0-1.001 1.4-1 3z"/><path fill="#343434" d="M7.333 7.333a.333.333 NaN 0 0-.164.045c.103.304.242.456.389.535a.333.333 NaN 0 0 .109-.246.333.333 NaN 0 0-.334-.334zm1.334 0a.333.333 NaN 0 0-.334.334.333.333 NaN 0 0 .109.246c.147-.08.286-.23.39-.535a.333.333 NaN 0 0-.165-.045z"/><g transform="translate(7)"><circle fill="#74b8ff" cx="4.5" cy="5.5" r="1.5"/><circle fill="#4d4d4d" cx="4.5" cy="5.5"/></g></svg>
